X:17001
T:Queen's Delight, The
R:Jig
C:Trad.
O:England
M:6/8
L:1/8
Q:1/8=200
K:G
"G"d2G dcB|"D7"cBc ABc|"G"d2G d2c|1"D7"BcA "G"GBc:|2"D7"BcA "G"G3|:
"C"cBc cBc|"D7"ABc def|"G"gfg "C"eag|"A7"gfe "D7"def|
"G"g2g gfe|"C"dec "D7"ABc|"G"d2G d2c|"D7"BcA "G"G3:|
% --------------------------------- R ---------------------------------------

